Front/img/common-section_compare/illu-4.svg

<svg width="228" height="231" viewBox="0 0 228 231" fill="none" xmlns="http://www.w3.org/2000/svg">
<path d="M91.0078 229.781C141.266 229.781 182.008 189.039 182.008 138.781C182.008 88.5233 141.266 47.7812 91.0078 47.7812C40.7499 47.7812 0.0078125 88.5233 0.0078125 138.781C0.0078125 189.039 40.7499 229.781 91.0078 229.781Z" fill="#E1E1E1"/>
<path d="M95.5391 21.8778C95.5391 21.8778 147.789 8.81784 182.539 41.5878C218.689 75.6778 207.379 123.878 207.379 123.878L95.5391 21.8778Z" fill="#152D5D"/>
<path d="M203.42 131.266C216.911 115.969 201.559 80.3839 169.13 51.7842C136.701 23.1845 99.4764 12.4004 85.9857 27.6972C72.495 42.994 87.8472 78.5792 120.276 107.179C152.704 135.779 189.929 146.563 203.42 131.266Z" fill="#1C3A77"/>
<path d="M193.84 130.03C193.49 127.15 192.97 124.3 192.36 121.48C192.07 120.06 191.71 118.66 191.36 117.25L190.25 113.06C188.683 107.493 186.735 102.04 184.42 96.7397C183.83 95.4297 183.31 94.0797 182.65 92.7397L180.71 88.8697C180.05 87.5797 179.29 86.3497 178.59 85.0897L177.54 83.2697C177.17 82.6497 176.76 82.0497 176.37 81.4497L174.01 77.7997L171.4 74.3397L170.1 72.5997L168.68 70.9597L165.84 67.6797C169.896 71.8404 173.531 76.3926 176.69 81.2697C177.1 81.8697 177.51 82.4697 177.9 83.0797L179.01 84.9197C179.72 86.1797 180.49 87.4197 181.16 88.6997L183.16 92.5897C183.83 93.8697 184.36 95.2297 184.96 96.5897C187.268 101.914 189.186 107.398 190.7 113C192.207 118.582 193.257 124.277 193.84 130.03Z" fill="#26201F"/>
<path d="M107.5 89.6584C110.38 86.6584 113.43 83.8184 116.59 81.0984C119.75 78.3784 123.01 75.7984 126.39 73.3584C129.793 70.9275 133.34 68.7035 137.01 66.6984C140.669 64.701 144.526 63.0922 148.52 61.8984C144.598 63.2669 140.806 64.9837 137.19 67.0284C133.585 69.0824 130.093 71.329 126.73 73.7584C123.33 76.1584 120.08 78.7584 116.88 81.3984C115.28 82.7084 113.7 84.0684 112.15 85.4484C110.6 86.8284 109.01 88.2684 107.5 89.6584Z" fill="#152D5D"/>
<path d="M89.0977 59.9105C93.838 58.7314 98.6473 57.8496 103.498 57.2705C108.351 56.6875 113.23 56.3538 118.118 56.2705C123.007 56.1986 127.897 56.4324 132.758 56.9705C137.613 57.5132 142.421 58.4259 147.138 59.7005L143.558 58.9505L141.768 58.5805L140.008 58.2705L136.398 57.7005L132.768 57.3105C127.92 56.8324 123.048 56.6387 118.178 56.7305C113.308 56.7305 108.438 57.0905 103.598 57.6105L99.9677 58.0405C98.7577 58.2205 97.5477 58.3705 96.3477 58.5605C93.8877 58.9605 91.4877 59.3805 89.0977 59.9105Z" fill="#152D5D"/>
<path d="M86.0078 27.6914C86.0078 27.6914 94.7778 44.0514 85.1878 60.6914C85.1878 60.6914 104.778 76.5214 104.948 91.6914C104.948 91.6914 127.428 95.6014 132.528 117.441C132.528 117.441 157.528 112.031 164.718 134.441C164.718 134.441 181.378 128.071 196.018 136.321C196.018 136.321 205.868 117.941 207.018 125.111L201.138 140.551L178.448 143.271L120.308 126.091L85.1578 89.7714L73.0078 51.8414L78.0878 34.1114L86.0078 27.6914Z" fill="#E1E1E1"/>
<path d="M120.309 126.088L85.159 89.768L73.0089 51.838L73.699 49.418C56.9261 52.6661 41.4064 60.5703 28.9155 72.2261C16.4247 83.8819 7.46733 98.8186 3.06833 115.327C-1.33068 131.835 -0.993623 149.249 4.04092 165.575C9.07547 181.9 18.6041 196.479 31.5367 207.643C44.4692 218.807 60.2832 226.104 77.1692 228.701C94.0552 231.298 111.331 229.088 127.02 222.326C142.709 215.563 156.178 204.521 165.885 190.462C175.592 176.403 181.145 159.895 181.909 142.828L178.449 143.238L120.309 126.088Z" fill="#E1E1E1"/>
<path d="M86.0105 27.6914L78.1505 34.1114L73.7305 49.4214C78.9004 48.4289 84.1468 47.8868 89.4105 47.8014C90.1531 40.9128 88.9764 33.953 86.0105 27.6914Z" fill="white"/>
<path d="M207.009 125.129C205.879 117.959 196.009 136.339 196.009 136.339C191.635 133.922 186.777 132.511 181.789 132.209C181.949 134.375 182.029 136.565 182.029 138.779C182.029 140.139 182.029 141.489 181.929 142.779L201.109 140.519L207.009 125.129Z" fill="white"/>
<path d="M51.5273 145.388L157.007 61.8984L158.307 62.6484L55.5973 148.078L51.5273 145.388Z" fill="#FF8139"/>
<path d="M48.4781 154.608C48.4781 154.608 37.2281 150.318 34.0081 150.188C30.7881 150.058 31.1381 152.588 30.1981 153.698C29.2581 154.808 27.9181 155.988 28.1181 157.798C28.3181 159.608 26.2981 159.718 26.7881 161.908C27.2781 164.098 25.6081 164.848 27.0881 166.628C28.5681 168.408 37.5281 172.968 39.2681 173.438C39.5547 173.535 39.8668 173.525 40.1464 173.409C40.426 173.294 40.6541 173.08 40.7885 172.809C40.9228 172.538 40.9542 172.227 40.8769 171.935C40.7996 171.642 40.6188 171.388 40.3681 171.218C41.4252 172.038 42.6069 172.683 43.8681 173.128L50.4781 173.498L48.4781 154.608Z" fill="#F4C7C3"/>
<path d="M118.809 220.069H116.5C117.77 190.339 123.519 162.999 123.519 162.999C123.519 162.999 100.48 187.899 83.5 185.499C66.52 183.099 50.2589 175.939 48.8589 175.069C48.2389 174.689 46.5689 173.699 44.6289 172.249L53.3789 167.389C55.3789 168.209 66.5 172.999 66.5 172.999C83.5 178.499 85.2989 179.549 90.4089 177.289C95.5189 175.029 104.22 157.229 112 148.999C119.78 140.769 123.419 130.809 130.009 132.669C137.569 134.819 141.009 132.489 141.009 132.489L141.639 131.349C143.251 127.297 144.308 123.045 144.779 118.709C141.626 119.452 138.341 119.428 135.199 118.639C117.319 113.759 133.879 65.919 133.879 65.919C138.789 52.919 171.489 63.289 175.609 70.579C179.609 77.579 173.819 88.289 173.819 88.289C177.899 88.109 178.339 91.409 178.339 91.409C179.159 98.509 168.969 103.109 168.969 103.109L167.969 104.359C158.909 117.109 158.289 126.199 159.969 130.029C160.349 130.829 160.779 140.809 167.969 138.999C171.969 137.999 180.369 139.669 186.179 153.999C197.179 181.199 192.029 214.759 186.179 218.699C180.329 222.639 123.519 224.639 123.519 224.639L118.909 220.069" fill="#F4C7C3"/>
<path d="M190.567 82.1115C189.807 73.1115 184.157 52.6115 152.717 57.8415C149.037 56.8415 144.907 58.0615 143.097 58.5415C125.837 63.1515 128.097 87.7315 128.097 87.7315C132.03 82.7044 136.629 78.2366 141.767 74.4515C143.243 80.2151 146.001 85.5715 149.834 90.1216C153.667 94.6718 158.478 98.2984 163.907 100.731C159.497 116.061 153.907 142.301 167.337 140.371C186.337 137.631 186.717 157.551 187.287 159.571C187.857 161.591 187.787 171.331 187.787 171.331C187.787 171.331 191.347 91.1115 190.567 82.1115Z" fill="#2F2417"/>
<path opacity="0.5" d="M152.737 57.8399C149.057 56.8399 144.927 58.0599 143.117 58.5399C125.857 63.1499 128.117 87.7299 128.117 87.7299C131.271 83.6987 134.86 80.0266 138.817 76.7799C138.817 76.7799 146.287 64.7399 152.737 57.8399Z" fill="#000100"/>
<path opacity="0.5" d="M168.405 114.09C170.335 103.75 163.905 100.73 163.905 100.73C159.495 116.06 153.905 142.3 167.335 140.37C161.455 128.43 166.475 124.43 168.405 114.09Z" fill="#000100"/>
<path opacity="0.1" d="M132.497 117.46C128.417 113.46 130.817 102.03 130.027 97.9302C129.237 93.8302 136.027 90.1802 135.877 79.7302C135.767 71.9402 140.657 63.6402 143.157 59.9102C138.677 60.4702 135.157 62.2802 133.777 65.9102C133.777 65.9202 119.007 108.67 132.497 117.46Z" fill="black"/>
<path opacity="0.1" d="M144.678 133.57C146.118 132.24 148.468 117.73 148.468 117.73L144.678 118.73C144.207 123.066 143.15 127.318 141.538 131.37L140.908 132.51C140.908 132.51 138.428 134.17 133.418 133.43L134.528 133.8C137.938 134.53 143.248 134.9 144.678 133.57Z" fill="black"/>
<path d="M69.0098 170.819C84.4998 171.919 88.3698 170.989 92.0009 168.499C95.6319 166.009 100.001 162.999 111.001 147.519C115.501 138.999 123.45 130.809 130.04 132.669C131.178 132.997 132.337 133.244 133.51 133.409V132.269C136.8 130.549 142.13 130.059 142.13 130.059C142.02 130.359 141.4 132.299 141 132.519C140.653 132.703 140.296 132.867 139.93 133.009C140.484 134.284 141.318 135.419 142.37 136.329L144.73 151.039L150.32 137.739C152.408 137.28 154.363 136.35 156.036 135.018C157.709 133.687 159.054 131.991 159.97 130.059C162.384 130.816 164.713 131.821 166.92 133.059C167.509 132.976 165.924 137.883 166.501 137.739C170.501 136.739 183.081 139.199 190.001 152.999C192.701 158.399 193.721 174.699 194.001 183.499C194.001 183.499 194.471 199.759 192.501 216.999C192.501 216.999 184.77 219.949 178.03 221.369C167.6 223.849 149.88 222.829 137.63 224.709L136.47 209.709L118.81 220.069L116.501 216.999C117.056 203.996 114.506 198.297 112.501 191.499C109.922 182.753 120.501 168.499 120.501 168.499C120.501 168.499 101.501 189.499 84.5009 189.499C78.5009 189.499 74.6498 191.049 67.3398 187.979L69.0098 170.819Z" fill="white"/>
<path d="M136.207 208.337L137.587 224.637L153.187 224.097L151.887 202.357C151.614 202.048 151.268 201.812 150.88 201.672C150.492 201.533 150.075 201.493 149.667 201.557C148.327 201.817 146.997 204.307 146.997 204.307C146.818 204.032 146.566 203.812 146.27 203.67C145.973 203.529 145.644 203.473 145.317 203.507C144.247 203.687 143.267 205.727 143.267 205.727C143.099 205.099 142.711 204.551 142.173 204.184C141.635 203.817 140.984 203.655 140.337 203.727C138.007 204.037 136.207 208.337 136.207 208.337Z" fill="#F5F5F5"/>
<path d="M67.2696 188.659L69.0096 169.719C69.1751 169.515 69.3862 169.353 69.6259 169.245C69.8655 169.138 70.1271 169.088 70.3896 169.099C71.3896 169.099 72.1096 170.399 72.1096 170.399C72.3295 170.163 72.5957 169.975 72.8917 169.846C73.1876 169.717 73.5069 169.651 73.8296 169.651C74.1523 169.651 74.4716 169.717 74.7676 169.846C75.0635 169.975 75.3297 170.163 75.5496 170.399C75.8508 170.044 76.2339 169.767 76.666 169.593C77.0981 169.419 77.5661 169.352 78.0296 169.399C78.6354 169.449 79.2239 169.626 79.7564 169.919C80.289 170.212 80.7535 170.614 81.1196 171.099V194.379C80.0275 194.138 78.9492 193.838 77.8896 193.479C77.3651 193.323 76.8795 193.057 76.4643 192.701C76.0491 192.344 75.7136 191.904 75.4796 191.409C74.8279 191.764 74.0904 191.93 73.3496 191.889C72.3496 191.759 71.6296 190.239 71.6296 190.239C71.326 190.575 70.9355 190.82 70.5013 190.947C70.0671 191.074 69.6061 191.078 69.1696 190.959C68.633 190.861 68.1484 190.576 67.8009 190.155C67.4534 189.735 67.2653 189.205 67.2696 188.659Z" fill="#F5F5F5"/>
<path d="M145.316 152.268L151.316 143.078L153.776 151.838L162.326 141.578L153.816 153.268C153.816 153.268 152.586 150.388 151.196 150.388C149.806 150.388 149.386 154.128 145.316 152.268Z" fill="#F5F5F5"/>
<path d="M143.158 151.857L140.948 142.687L136.948 148.047L135.398 141.617L136.618 149.557C136.888 149.751 137.195 149.885 137.52 149.953C137.845 150.02 138.181 150.018 138.505 149.947C138.83 149.877 139.135 149.739 139.403 149.542C139.671 149.346 139.894 149.095 140.058 148.807C141.418 146.637 143.158 151.857 143.158 151.857Z" fill="#F5F5F5"/>
<path d="M154.5 207C154.5 207 167.67 202.64 170.22 201.82L177.75 199.3V176.5C177.75 176.5 175.45 190.63 173.19 192.82C170.93 195.01 165.7 193.92 162.5 199.3C158.94 205.17 154.5 207 154.5 207Z" fill="#F5F5F5"/>
<path d="M101.007 194.417C106.007 191.567 105.937 190.488 106.337 186.268C106.937 179.858 109.027 163.688 109.027 163.688L107.667 174.807C107.667 174.807 106.547 192.498 87.2567 193.708C85.2567 193.838 83.3467 195.017 81.1367 194.417C84.0067 196.187 94.2267 198.267 101.007 194.417Z" fill="#E0DEDE"/>
<path d="M142.328 129.207H142.338L142.328 129.217V129.207Z" fill="#F4EBEA"/>
<path d="M52.7376 167.629C51.3327 165.228 50.6391 162.478 50.7376 159.699C50.8276 154.899 43.5676 153.699 41.0476 154.199C38.5276 154.699 35.8676 156.899 33.2776 158.979C30.6876 161.059 33.1576 162.299 34.6776 161.779C36.4576 161.169 38.6776 159.339 40.0876 160.309C41.4976 161.279 37.9176 165.569 45.0876 168.579L52.7376 167.629Z" fill="#E5B9B7"/>
<path d="M54.4493 168.121C52.7626 165.322 51.8226 162.137 51.7193 158.871C51.8093 154.071 44.5493 152.871 42.0393 153.371C39.5293 153.871 36.8593 156.071 34.2593 158.151C31.6593 160.231 33.6693 160.501 35.2593 160.431C36.8493 160.361 39.8793 157.721 41.2593 158.691C42.6393 159.661 40.5893 167.621 46.6193 171.861L54.4493 168.121Z" fill="#F4C7C3"/>
<path d="M41.457 151.85L51.767 143.44C51.767 143.44 52.687 142.73 53.867 144.03C55.047 145.33 56.537 147.27 56.537 147.27C56.6916 147.565 56.7311 147.908 56.648 148.231C56.5649 148.554 56.365 148.835 56.087 149.02C55.087 149.89 47.477 156.32 47.477 156.32C47.477 156.32 44.777 152.1 41.457 151.85Z" fill="#00181B"/>
<path d="M114.39 224.699H100.58C100.023 224.699 99.4891 224.478 99.0952 224.084C98.7014 223.69 98.4802 223.156 98.4802 222.599L92.1602 196.389C92.1602 195.832 92.3814 195.298 92.7752 194.904C93.1691 194.51 93.7032 194.289 94.2602 194.289H108.07C108.627 194.289 109.161 194.51 109.555 194.904C109.949 195.298 110.17 195.832 110.17 196.389L116.49 222.599C116.49 223.156 116.269 223.69 115.875 224.084C115.481 224.478 114.947 224.699 114.39 224.699Z" fill="#00181B"/>
<path d="M136.5 211.002C136.5 211.002 117.509 213.271 108.489 209.271C104.279 207.401 93.7692 211.791 93.1292 213.461C92.4892 215.131 93.6792 215.821 94.2692 216.801C94.8592 217.781 93.7492 219.251 94.6492 220.801C95.5492 222.351 94.0792 223.621 95.2292 225.191C96.3792 226.761 95.6792 228.801 97.0392 229.771C98.3992 230.741 105.429 231.001 110.919 229.581C118.059 227.741 118.489 225.021 123.419 224.661C128.349 224.301 136.5 211.002 136.5 211.002Z" fill="#F4C7C3"/>
<path d="M86.0078 27.6884C86.0078 27.6884 108.398 19.7984 113.548 32.9284C113.548 32.9284 137.028 29.3284 141.768 47.6084C141.768 47.6084 165.078 42.6084 171.668 66.9984C171.668 66.9984 191.558 69.9984 194.388 93.1684C194.388 93.1684 203.958 98.3784 208.388 114.168L206.568 100.278L198.818 73.0584L162.318 32.4184L120.338 19.2684C120.338 19.2684 93.0078 18.1784 86.0078 27.6884Z" fill="#152D5D"/>
<path d="M115.828 30.5989C117.909 29.2335 120.22 28.2546 122.648 27.7089C125.062 27.1151 127.526 26.7435 130.008 26.5989C134.978 26.343 139.962 26.6044 144.878 27.3789C149.797 28.1148 154.663 29.1636 159.448 30.5189C164.228 31.8889 168.928 33.5189 173.578 35.2489L175.288 35.8989L173.478 35.6189C171.159 35.2962 168.81 35.2425 166.478 35.4589C164.141 35.6584 161.83 36.0905 159.578 36.7489C157.311 37.4108 155.111 38.2847 153.008 39.3589C150.921 40.4509 148.945 41.7437 147.108 43.2189C150.722 40.1501 154.929 37.8591 159.468 36.4889C161.734 35.8066 164.062 35.3511 166.418 35.1289C168.784 34.8906 171.17 34.9275 173.528 35.2389L173.418 35.6089C168.768 33.8889 164.068 32.3289 159.288 30.9989C154.531 29.6146 149.692 28.5324 144.798 27.7589C139.912 26.9567 134.955 26.6618 130.008 26.8789C127.535 27.0119 125.077 27.3463 122.658 27.8789C120.238 28.3739 117.926 29.2948 115.828 30.5989Z" fill="#26201F"/>
<path d="M174.527 64.1795C175.366 62.1039 176.035 59.9636 176.527 57.7795C177.033 55.6016 177.4 53.3939 177.627 51.1695C177.865 48.948 177.939 46.7119 177.847 44.4795C177.765 42.2482 177.521 40.0257 177.117 37.8295L177.007 37.2695L177.397 37.6095C181.012 40.7957 184.208 44.4281 186.907 48.4195C189.632 52.4173 191.858 56.7325 193.537 61.2695C195.189 65.7797 196.244 70.4861 196.677 75.2695C197.074 80.0751 196.848 84.9116 196.007 89.6595C196.718 84.92 196.856 80.112 196.417 75.3395C196.174 72.9603 195.78 70.5988 195.237 68.2695C194.687 65.9462 193.996 63.6586 193.167 61.4195C191.47 56.949 189.248 52.6959 186.547 48.7495C183.901 44.7679 180.759 41.1388 177.197 37.9495L177.507 37.7695C177.894 39.9838 178.121 42.2228 178.187 44.4695C178.259 46.7167 178.166 48.9661 177.907 51.1995C177.667 53.4336 177.259 55.6465 176.687 57.8195C176.143 59.9953 175.421 62.1225 174.527 64.1795Z" fill="#26201F"/>
<path d="M117.207 211.057L112.938 207.867L113.618 210.677L117.207 211.057Z" fill="#E5B9B7"/>
</svg>

<svg xmlns="http://www.w3.org/2000/svg" fill="none" viewBox="0 0 228 231"><path fill="#E1E1E1" d="M91.008 229.781c50.258 0 91-40.742 91-91s-40.742-91-91-91-91 40.742-91 91 40.742 91 91 91z"/><path fill="#152D5D" d="M95.54 21.878s52.249-13.06 86.999 19.71c36.15 34.09 24.84 82.29 24.84 82.29l-111.84-102z"/><path fill="#1C3A77" d="M203.42 131.266c13.491-15.297-1.861-50.882-34.29-79.482S99.476 12.4 85.986 27.697c-13.491 15.297 1.861 50.882 34.29 79.482 32.428 28.6 69.653 39.384 83.144 24.087z"/><path fill="#26201F" d="M193.84 130.03c-.35-2.88-.87-5.73-1.48-8.55-.29-1.42-.65-2.82-1-4.23l-1.11-4.19a126.217 126.217 0 00-5.83-16.32c-.59-1.31-1.11-2.66-1.77-4l-1.94-3.87c-.66-1.29-1.42-2.52-2.12-3.78l-1.05-1.82c-.37-.62-.78-1.22-1.17-1.82l-2.36-3.65-2.61-3.46-1.3-1.74-1.42-1.64-2.84-3.28a88.025 88.025 0 0110.85 13.59c.41.6.82 1.2 1.21 1.81l1.11 1.84c.71 1.26 1.48 2.5 2.15 3.78l2 3.89c.67 1.28 1.2 2.64 1.8 4A119.93 119.93 0 01190.7 113a106.552 106.552 0 013.14 17.03z"/><path fill="#152D5D" d="M107.5 89.658c2.88-3 5.93-5.84 9.09-8.56 3.16-2.72 6.42-5.3 9.8-7.74 3.403-2.43 6.95-4.654 10.62-6.66a59.706 59.706 0 0111.51-4.8 69.61 69.61 0 00-11.33 5.13 115.541 115.541 0 00-10.46 6.73c-3.4 2.4-6.65 5-9.85 7.64-1.6 1.31-3.18 2.67-4.73 4.05-1.55 1.38-3.14 2.82-4.65 4.21zM89.098 59.91c4.74-1.179 9.55-2.06 14.4-2.64 4.853-.583 9.732-.916 14.62-1 4.889-.071 9.779.162 14.64.7a96.022 96.022 0 0114.38 2.73l-3.58-.75-1.79-.37-1.76-.31-3.61-.57-3.63-.39c-4.848-.478-9.72-.671-14.59-.58-4.87 0-9.74.36-14.58.88l-3.63.43c-1.21.18-2.42.33-3.62.52-2.46.4-4.86.82-7.25 1.35z"/><path fill="#E1E1E1" d="M86.008 27.691s8.77 16.36-.82 33c0 0 19.59 15.83 19.76 31 0 0 22.48 3.91 27.58 25.75 0 0 25-5.41 32.19 17 0 0 16.66-6.37 31.3 1.88 0 0 9.85-18.38 11-11.21l-5.88 15.44-22.69 2.72-58.14-17.18-35.15-36.32-12.15-37.93 5.08-17.73 7.92-6.42z"/><path fill="#E1E1E1" d="M120.309 126.088l-35.15-36.32-12.15-37.93.69-2.42a91 91 0 10108.21 93.41l-3.46.41-58.14-17.15z"/><path fill="#fff" d="M86.01 27.691l-7.86 6.42-4.42 15.31a90.998 90.998 0 0115.68-1.62 37.571 37.571 0 00-3.4-20.11zM207.009 125.129c-1.13-7.17-11 11.21-11 11.21a33.6 33.6 0 00-14.22-4.13c.16 2.166.24 4.356.24 6.57 0 1.36 0 2.71-.1 4l19.18-2.26 5.9-15.39z"/><path fill="#FF8139" d="M51.527 145.388l105.48-83.49 1.3.75-102.71 85.43-4.07-2.69z"/><path fill="#F4C7C3" d="M48.478 154.608s-11.25-4.29-14.47-4.42c-3.22-.13-2.87 2.4-3.81 3.51-.94 1.11-2.28 2.29-2.08 4.1.2 1.81-1.82 1.92-1.33 4.11.49 2.19-1.18 2.94.3 4.72 1.48 1.78 10.44 6.34 12.18 6.81a1.248 1.248 0 001.609-1.503 1.252 1.252 0 00-.509-.717 12.492 12.492 0 003.5 1.91l6.61.37-2-18.89z"/><path fill="#F4C7C3" d="M118.809 220.069H116.5c1.27-29.73 7.019-57.07 7.019-57.07s-23.039 24.9-40.019 22.5c-16.98-2.4-33.241-9.56-34.641-10.43-.62-.38-2.29-1.37-4.23-2.82l8.75-4.86c2 .82 13.121 5.61 13.121 5.61 17 5.5 18.799 6.55 23.909 4.29 5.11-2.26 13.811-20.06 21.591-28.29 7.78-8.23 11.419-18.19 18.009-16.33 7.56 2.15 11-.18 11-.18l.63-1.14a48.309 48.309 0 003.14-12.64 20.257 20.257 0 01-9.58-.07c-17.88-4.88-1.32-52.72-1.32-52.72 4.91-13 37.61-2.63 41.73 4.66 4 7-1.79 17.71-1.79 17.71 4.08-.18 4.52 3.12 4.52 3.12.82 7.1-9.37 11.7-9.37 11.7l-1 1.25c-9.06 12.75-9.68 21.84-8 25.67.38.8.81 10.78 8 8.97 4-1 12.4.67 18.21 15 11 27.2 5.85 60.76 0 64.7-5.85 3.94-62.66 5.94-62.66 5.94l-4.61-4.57"/><path fill="#2F2417" d="M190.567 82.112c-.76-9-6.41-29.5-37.85-24.27-3.68-1-7.81.22-9.62.7-17.26 4.61-15 29.19-15 29.19a70.29 70.29 0 0113.67-13.28 39.554 39.554 0 0022.14 26.279c-4.41 15.33-10 41.57 3.43 39.64 19-2.74 19.38 17.18 19.95 19.2.57 2.02.5 11.76.5 11.76s3.56-80.22 2.78-89.22z"/><path fill="#000100" d="M152.737 57.84c-3.68-1-7.81.22-9.62.7-17.26 4.61-15 29.19-15 29.19a69.808 69.808 0 0110.7-10.95s7.47-12.04 13.92-18.94zM168.405 114.09c1.93-10.34-4.5-13.36-4.5-13.36-4.41 15.33-10 41.57 3.43 39.64-5.88-11.94-.86-15.94 1.07-26.28z" opacity=".5"/><path fill="#000" d="M132.497 117.46c-4.08-4-1.68-15.43-2.47-19.53-.79-4.1 6-7.75 5.85-18.2-.11-7.79 4.78-16.09 7.28-19.82-4.48.56-8 2.37-9.38 6 0 .01-14.77 42.76-1.28 51.55zM144.678 133.57c1.44-1.33 3.79-15.84 3.79-15.84l-3.79 1a48.309 48.309 0 01-3.14 12.64l-.63 1.14s-2.48 1.66-7.49.92l1.11.37c3.41.73 8.72 1.1 10.15-.23z" opacity=".1"/><path fill="#fff" d="M69.01 170.819c15.49 1.1 19.36.17 22.99-2.32 3.632-2.49 8.001-5.5 19.001-20.98 4.5-8.52 12.449-16.71 19.039-14.85a25.2 25.2 0 003.47.74v-1.14c3.29-1.72 8.62-2.21 8.62-2.21-.11.3-.73 2.24-1.13 2.46-.347.184-.704.348-1.07.49a9.28 9.28 0 002.44 3.32l2.36 14.71 5.59-13.3a14.001 14.001 0 009.65-7.68 36.574 36.574 0 016.95 3c.589-.083-.996 4.824-.419 4.68 4-1 16.58 1.46 23.5 15.26 2.7 5.4 3.72 21.7 4 30.5 0 0 .47 16.26-1.5 33.5 0 0-7.731 2.95-14.471 4.37-10.43 2.48-28.15 1.46-40.4 3.34l-1.16-15-17.66 10.36-2.309-3.07c.555-13.003-1.995-18.702-4-25.5-2.579-8.746 8-23 8-23s-19 21-36 21c-6 0-9.851 1.55-17.161-1.52l1.67-17.16z"/><path fill="#F5F5F5" d="M136.207 208.337l1.38 16.3 15.6-.54-1.3-21.74a2.457 2.457 0 00-2.22-.8c-1.34.26-2.67 2.75-2.67 2.75a1.791 1.791 0 00-.727-.637 1.788 1.788 0 00-.953-.163c-1.07.18-2.05 2.22-2.05 2.22a2.719 2.719 0 00-2.93-2c-2.33.31-4.13 4.61-4.13 4.61zM67.27 188.659l1.74-18.94a1.683 1.683 0 011.38-.62c1 0 1.72 1.3 1.72 1.3a2.354 2.354 0 013.44 0 2.871 2.871 0 012.48-1 4.319 4.319 0 013.09 1.7v23.28a30.643 30.643 0 01-3.23-.9 3.899 3.899 0 01-2.41-2.07 3.991 3.991 0 01-2.13.48c-1-.13-1.72-1.65-1.72-1.65a2.446 2.446 0 01-2.46.72 2.318 2.318 0 01-1.9-2.3zM145.316 152.268l6-9.19 2.46 8.76 8.55-10.26-8.51 11.69s-1.23-2.88-2.62-2.88c-1.39 0-1.81 3.74-5.88 1.88zM143.158 151.857l-2.21-9.17-4 5.36-1.55-6.43 1.22 7.94a2.37 2.37 0 003.44-.75c1.36-2.17 3.1 3.05 3.1 3.05zM154.5 207s13.17-4.36 15.72-5.18l7.53-2.52v-22.8s-2.3 14.13-4.56 16.32c-2.26 2.19-7.49 1.1-10.69 6.48-3.56 5.87-8 7.7-8 7.7z"/><path fill="#E0DEDE" d="M101.007 194.417c5-2.85 4.93-3.929 5.33-8.149.6-6.41 2.69-22.58 2.69-22.58l-1.36 11.119s-1.12 17.691-20.41 18.901c-2 .13-3.91 1.309-6.12.709 2.87 1.77 13.09 3.85 19.87 0z"/><path fill="#F4EBEA" d="M142.328 129.207h.01l-.01.01v-.01z"/><path fill="#E5B9B7" d="M52.738 167.629a14.673 14.673 0 01-2-7.93c.09-4.8-7.17-6-9.69-5.5-2.52.5-5.18 2.7-7.77 4.78s-.12 3.32 1.4 2.8c1.78-.61 4-2.44 5.41-1.47 1.41.97-2.17 5.26 5 8.27l7.65-.95z"/><path fill="#F4C7C3" d="M54.45 168.121a19.091 19.091 0 01-2.73-9.25c.09-4.8-7.17-6-9.68-5.5s-5.18 2.7-7.78 4.78c-2.6 2.08-.59 2.35 1 2.28 1.59-.07 4.62-2.71 6-1.74s-.67 8.93 5.36 13.17l7.83-3.74z"/><path fill="#00181B" d="M41.457 151.85l10.31-8.41s.92-.71 2.1.59c1.18 1.3 2.67 3.24 2.67 3.24a1.348 1.348 0 01-.45 1.75c-1 .87-8.61 7.3-8.61 7.3s-2.7-4.22-6.02-4.47zM114.39 224.699h-13.81a2.099 2.099 0 01-2.1-2.1l-6.32-26.21a2.1 2.1 0 012.1-2.1h13.81a2.1 2.1 0 012.1 2.1l6.32 26.21a2.1 2.1 0 01-2.1 2.1z"/><path fill="#F4C7C3" d="M136.5 211.002s-18.991 2.269-28.011-1.731c-4.21-1.87-14.72 2.52-15.36 4.19-.64 1.67.55 2.36 1.14 3.34.59.98-.52 2.45.38 4 .9 1.55-.57 2.82.58 4.39 1.15 1.57.45 3.61 1.81 4.58 1.36.97 8.39 1.23 13.88-.19 7.14-1.84 7.57-4.56 12.5-4.92 4.93-.36 13.081-13.659 13.081-13.659z"/><path fill="#152D5D" d="M86.008 27.688s22.39-7.89 27.54 5.24c0 0 23.48-3.6 28.22 14.68 0 0 23.31-5 29.9 19.39 0 0 19.89 3 22.72 26.17 0 0 9.57 5.21 14 21l-1.82-13.89-7.75-27.22-36.5-40.64-41.98-13.15s-27.33-1.09-34.33 8.42z"/><path fill="#26201F" d="M115.828 30.599a20.713 20.713 0 016.82-2.89 40.733 40.733 0 017.36-1.11c4.97-.256 9.954.005 14.87.78 4.919.736 9.785 1.785 14.57 3.14 4.78 1.37 9.48 3 14.13 4.73l1.71.65-1.81-.28a30.406 30.406 0 00-7-.16 35.28 35.28 0 00-6.9 1.29 37.627 37.627 0 00-6.57 2.61 36.301 36.301 0 00-5.9 3.86 34.497 34.497 0 0112.36-6.73 35.746 35.746 0 016.95-1.36 30.762 30.762 0 017.11.11l-.11.37c-4.65-1.72-9.35-3.28-14.13-4.61a117.512 117.512 0 00-14.49-3.24 71.85 71.85 0 00-14.79-.88 45.56 45.56 0 00-7.35 1 20.852 20.852 0 00-6.83 2.72zM174.527 64.18a41.29 41.29 0 002-6.4 52.97 52.97 0 001.1-6.61c.238-2.222.312-4.458.22-6.69a46.119 46.119 0 00-.73-6.65l-.11-.56.39.34a56.886 56.886 0 019.51 10.81 59.443 59.443 0 016.63 12.85 55.164 55.164 0 013.14 14 56.047 56.047 0 01-.67 14.39c.711-4.74.849-9.548.41-14.32a56.37 56.37 0 00-1.18-7.07 58.625 58.625 0 00-2.07-6.85 60.357 60.357 0 00-6.62-12.67 56.391 56.391 0 00-9.35-10.8l.31-.18c.387 2.214.614 4.453.68 6.7a45.714 45.714 0 01-.28 6.73 44.807 44.807 0 01-1.22 6.62 40.756 40.756 0 01-2.16 6.36z"/><path fill="#E5B9B7" d="M117.207 211.057l-4.269-3.19.68 2.81 3.589.38z"/></svg>
